X: 41014
T: Trip To Gweedore
R: reel
M: 4/4
K: Dmajor
|:~d3a gfdf|edAd BdAB|~d3f edBA|FAEA D2FA|
~d3a gfdf|edAd BdAB|~d3f edBA|1 FAEA D2FA:|2 FAEA D2DE||
|:~F3A BAFA|~G3A BAGB|A2eA fAeA|efed cAGE|
~F3A BAFA|~G3A BAGB|A2eA fAeA|1 efec d2DE:|2 efec d4||

